!!!ONB: MCCC : ICD0069_02 : Extracted Monophonic Melody
!!!COM: Debussy, Claude
!!!OPR: Pour le Piano
!!!OMV: 2
!!!SCT: CD 95 ; L.95
!!!ODT: 1894///
**kern
*staff1
=1
*clefG2
*k[f#c#g#d#]
*E:
*M3/4
4ff#
4aa
12bb
12aa
12ff#
=2
8ee
8gg#
2gg#
=3
8ff#
8gg#
4aa
12bb
12aa
12ff#
=4
8ee
8gg#
2gg#
=5
8g#
8cc#
4cc#
16b
16a
8g#
=6
8g#
8c#
8c#
8d#
8e
8g#
=7
8c#
8d#
8e
8g#
8a
8cc#
=8
4dd#
2dd#
=9
16ee
16dd#
8cc#
4cc#
8cc#
8ff#
=10
16ee
16dd#
8cc#
4cc#[
4cc#]
=11
16g#
16f#
8e
4.e
8f#
=12
16g#
16f#
8e
4.e
8f#
=13
4.c#
8f#
8c#
8f#
=14
8c#
8d#
2d#
=15
4ff#
4aa
12bb
12aa
12ff#
=16
8ee
8gg#
2gg#
=17
8ff#
8gg#
4aa
12bb
12aa
12ff#
=18
8ee
8gg#
2gg#
=19
8gg#
8bb
4bb
16ccc#
16bb
8aa
=20
2.r
=21
2.r
=22
2.r
=23
4c#
4c#
4e
=24
4c#
2c#
=25
4c#
4c#
8e
8f#
=26
4c#
2c#
=27
4e
4e
4g
=28
4e
4e
8g
8a
=29
4a#
4a#
8dd#
16cc#
16b#
=30
8a#
8b#
8cc#
8dd#
8ee#
8cc#
=31
8e#
8g#
4cc#
16b
16a#
8g#
=32
2.g#
=33
4f#
4f#
8b
16a
16g#
=34
8f#
8g#
8a
8b
8cc#
8a
=35
8dd#
8ee
4ee
4dd#
=36
8dd#
8gg#
16ff#
16ee
8dd#
4dd#
=37
8ff#
8gg#
4gg#
4ff#
=38
8ff#
8bb
16aa
16gg#
8ff#
8ff#
8eee
=39
8ccc#
8bb
8aa
8gg#
8ff#
8eee
=40
8ccc#
8bb
8aa
8gg#
8ff#
8ee
=41
8dd#
8cc#
4b
4g#
=42
4f#
4a
12b
12a
12f#
=43
8e
8g#
2g#
=44
8f#
8g#
4a
12b
12a
12f#
=45
8e
8g#
2g#
=46
8gg#
8ccc#
4ccc#
16bb
16aa
8gg#
=47
8gg#
8cc#
8cc#
8dd#
8ee
8gg#
=48
8cc#
8dd#
8ee
8gg#
8aa
8ccc#
=49
4ddd#
2ddd#
=50
4dd#
4.dd#
8ee#
=51
8cc#
8g#
4g#
4f#
=52
4dd#
4.dd#
8ee#
=53
8cc#
8g#
4.gg#
8ff#
=54
8gg#
16ff#
16gg#
8gg#
8ff#
8gg#
8aa#
=55
4aa#
4aa#[
4aa#]
=56
16bb
16aa#
8gg#
4gg#
8gg#
8ccc#
=57
16bb
16aa#
8gg#
4gg#
8gg#
8ccc#
=58
8bb
8aa#
8gg#
8aa#
8bb
8ccc#
=59
4ddd#
2ddd#
=60
16ee
16dd#
8cc#
4cc#
8cc#
8ff#
=61
16ee
16dd#
8cc#
4cc#
8cc#
8ff#
=62
8ee
8dd#
8cc#
8dd#
8ee
8ff#
=63
8gg#
16ff#
16gg#
8gg#
8bb
8gg#
8dd#
=64
8gg#
16ff#
16gg#
8gg#
8ccc#
8gg#
8dd#
=65
8gg#
8ccc#
8gg#
8dd#
8g#
8d#
=66
8GG#
8C#
4C#
16BB
16AA
8GG#
=67
2c#
4e[
=68
4e]
2g#
=69
2.b[
=70
4b]
2bb
=71
2.ccc#[
=72
2.ccc#]
=73
2.r
==
*-
